X: 858
T: Gönlüm Düşüyor Çırpınarak
C: İsmail Baha Sürelsan
O: Turkey
F: http://compmusic.upf.edu/node/140
N: acemasiran--sarki--aksak--gonlum_dusuyor--ismail_baha_surelsan
N: makam= acemasiran
N: form= sarki
N: usul= aksak = 9/8
M: 9/8
L: 1/16
K: C _B   
Q: 1/4=396
%%MIDI tuningsystem comma53
f4 f2a2 g2a2 f2e2 d2 | c3BA2 d2c2 B2A2 G2F2  | \
w:  ARANAĞME  |   | 
c4 d2e2 f2g2 a2g2 a2 | 
w:   | 
f16z2  | a3g f2e2 d2c2 B2A2 B2 | G4G2 G2c4f6  | \
w:   |   |   | 
d4 A2B2 G2c2 A2G2 A2 | 
w:   | 
F16z2  | f4 f2a2 g2a2 f2e2 d2 | c3BA2 d2c2 B2A2 G2F2  | \
w:   |  ARANAĞME  |   | 
c4 d2e2 f2g2 a2g2 a2 | 
w:   | 
f16z2  | a3g f2e2 d2c2 B2A2 B2 | G4G2 G2c4f6  | \
w:   |   |   | 
d4 A2B2 G2c2 A2G2 A2 | 
w:   | 
F16z2  | f4 f2a2 g2a2 f4 e2 | e3dc2 d2e8z2  | \
w:   |  Gön lüm  *  dü şü yor   |  çır *  pı na rak   | 
A4 c2c2 d2e2 f2g2 a2 | 
w:  giz li  ke men  | 
f16z2  | f4 f2a2 g2a2 f4 e2 | e3dc2 d2e8z2  | \
w:  de    |  Gön lüm  *  dü şü yor   |  çır *  pı na rak   | 
A4 c2c2 d2e2 f2g2 a2 | 
w:  giz li  ke men  | 
f16z2  | f4 c3d c2d2 c4 A2 | B4G2 G2c4f6  | \
w:  de    |  Kız  san *  da lı  kal  |  bim  gi bi  oy  | 
d4 A2B2 G2c2 A2G2 A2 | 
w:  nat ma  dü men  | 
F16z2  | f4 c3d c2d2 c4 A2 | B4G2 G2c4f6  | \
w:  de    |  Kız  san *  da lı  kal  |  bim  gi bi  oy  | 
d4 A2B2 G2c2 A2G2 A2 | 
w:  nat ma  dü men  | 
F16z2  | a4 a2b2 a2c'2 b4 a2 | g4g2 g2^f3ag4z2  | \
w:  de    |  Râm  ol *  du  de niz   |  kol la rı na   | 
c4 f2f2 e2f2 g2f2 a2 | 
w:  aşk  i le  ben  | 
a16z2  | b4 a2g2 f2a2 g4 z2 | c4d2 f2e8-e2  | \
w:  de    |  Râm  ol *  du  de niz   |  kol la rı na   | 
A4 c2c2 d2e2 f2g2 a2 | 
w:  aşk  i le  ben  | 
f18  | f4 c3d c2d2 c4 A2 | B4G2 G2c4f6  | \
w:  de    |  Kız  san *  da lı  kal  |  bim  gi bi  oy  | 
d4 A2B2 G2c2 A2G2 A2 | 
w:  nat ma  dü men  | 
F16z2  | f4 c3d c2d2 c4 A2 | B4G2 G2c4f6  | \
w:  de    |  Kız  san *  da lı  kal  |  bim  gi bi  oy  | 
d4 A2B2 G2c2 A2G2 A2 | 
w:  nat ma  dü men  | 
F16z2  | |


